img/header/mouse.svg

<svg width="40" height="40" fill="none" xmlns="http://www.w3.org/2000/svg"><defs><clipPath id="a"><path fill="#fff" fill-opacity="0" d="M0 0h40v40H0z"/></clipPath></defs><path fill="none" d="M0 0h40v40H0z"/><g clip-path="url(#a)" fill="#D4C17F"><path d="M19.96 0C13.48 0 8.2 5.27 8.2 11.76v16.47C8.2 34.72 13.48 40 19.96 40c6.49 0 11.77-5.28 11.77-11.77V11.76C31.73 5.27 26.45 0 19.96 0Zm9.37 28.23c0 5.16-4.2 9.37-9.37 9.37-5.16 0-9.36-4.21-9.36-9.37V11.76c0-5.16 4.2-9.37 9.36-9.37 5.17 0 9.37 4.21 9.37 9.37v16.47Z"/><path d="M19.96 7.95c-.66 0-1.2.54-1.2 1.2v5.53c0 .66.54 1.2 1.2 1.2.67 0 1.2-.54 1.2-1.2V9.15c0-.66-.53-1.2-1.2-1.2Z"/></g></svg>

<svg width="40.000000" height="40.000000" viewBox="0 0 40 40" fill="none" xmlns="http://www.w3.org/2000/svg" xmlns:xlink="http://www.w3.org/1999/xlink">
	<desc>
			Created with Pixso.
	</desc>
	<defs>
		<clipPath id="clip1_20">
			<rect width="40.000000" height="40.000000" fill="white" fill-opacity="0"/>
		</clipPath>
	</defs>
	<rect width="40.000000" height="40.000000" fill="#FFFFFF" fill-opacity="0"/>
	<g clip-path="url(#clip1_20)">
		<path d="M19.96 0C13.48 0 8.2 5.27 8.2 11.76L8.2 28.23C8.2 34.72 13.48 40 19.96 40C26.45 40 31.73 34.72 31.73 28.23L31.73 11.76C31.73 5.27 26.45 0 19.96 0ZM29.33 28.23C29.33 33.39 25.13 37.6 19.96 37.6C14.8 37.6 10.6 33.39 10.6 28.23L10.6 11.76C10.6 6.6 14.8 2.39 19.96 2.39C25.13 2.39 29.33 6.6 29.33 11.76L29.33 28.23Z" fill="#D4C17F" fill-opacity="1.000000" fill-rule="nonzero"/>
		<path d="M19.96 7.95C19.3 7.95 18.76 8.49 18.76 9.15L18.76 14.68C18.76 15.34 19.3 15.88 19.96 15.88C20.63 15.88 21.16 15.34 21.16 14.68L21.16 9.15C21.16 8.49 20.63 7.95 19.96 7.95Z" fill="#D4C17F" fill-opacity="1.000000" fill-rule="nonzero"/>
	</g>
</svg>
